X:2
T:Deil Amang the Tailors, The
M:C
L:1/8
R:Reel
S:Surenne - Dance Music of Scotland, pg. 28  (1852)
Z:AK/Fiddler's Companion
K:A
a2 eg a2 eg | a2 ea fedc | dfBf dfBf | dfBa gabg | a2 eg a2 eg | a2 ea fedc |
defd ecBA | E2G2A3 || e | ceAe ceAe | ceag fedc | dfBf dfBf | dfba gfed |
ceAe ceAe | ceag fedc | defd ecBA | E2G2 A3 z ||

